assets/Bomb/Flat/bomb_flat.svg

<svg width="32" height="32" viewBox="0 0 32 32" fill="none" xmlns="http://www.w3.org/2000/svg">
<path d="M23.3688 2.55538C23.5492 3.28261 24.5766 3.30002 24.7816 2.57932C24.9025 2.15402 25.3704 1.93259 25.776 2.1087L26.3615 2.36293C26.7671 2.53904 26.9247 3.03206 26.6965 3.41079C26.3099 4.05257 27.024 4.79136 27.6785 4.42671C28.0648 4.21153 28.5522 4.38578 28.7144 4.79708L28.9487 5.39092C29.1109 5.80221 28.8738 6.26228 28.4447 6.36875C27.7175 6.54917 27.7001 7.57653 28.4207 7.7815C28.846 7.90246 29.0674 8.37031 28.8913 8.77588L28.6371 9.36137C28.461 9.76696 27.968 9.9246 27.5892 9.69643C26.9474 9.30978 26.2086 10.0239 26.5733 10.6785C26.7885 11.0648 26.6142 11.5522 26.2029 11.7144L25.6091 11.9487C25.1978 12.1109 24.7377 11.8738 24.6312 11.4446C24.4508 10.7174 23.4234 10.7 23.2185 11.4207C23.0975 11.846 22.6297 12.0674 22.2241 11.8913L21.6386 11.637C21.233 11.4609 21.0754 10.9679 21.3035 10.5892C21.6902 9.94739 20.976 9.20861 20.3215 9.57327C19.9352 9.78846 19.4478 9.6142 19.2856 9.20289L19.0513 8.6091C18.8891 8.19779 19.1262 7.73771 19.5554 7.63123C20.2826 7.45081 20.3 6.42343 19.5793 6.21846C19.154 6.0975 18.9326 5.62965 19.1087 5.22408L19.363 4.63856C19.5391 4.23299 20.0321 4.07535 20.4108 4.30351C21.0526 4.69015 21.7914 3.976 21.4267 3.32147C21.2115 2.93521 21.3858 2.44783 21.7971 2.28557L22.3909 2.05133C22.8022 1.88907 23.2623 2.12622 23.3688 2.55538Z" fill="#FF822D"/>
<path d="M25.2071 5.79289C25.5976 6.18342 25.5976 6.81658 25.2071 7.20711L22.2071 10.2071C21.8166 10.5976 21.1834 10.5976 20.7929 10.2071C20.4024 9.81658 20.4024 9.18342 20.7929 8.79289L23.7929 5.79289C24.1834 5.40237 24.8166 5.40237 25.2071 5.79289Z" fill="#F4F4F4"/>
<path d="M26 18C26 24.6274 20.6274 30 14 30C7.37258 30 2 24.6274 2 18C2 11.3726 7.37258 6 14 6C20.6274 6 26 11.3726 26 18Z" fill="#533566"/>
<path d="M12 26.9999C18.0751 26.9999 23 22.075 23 15.9999C23 14.8677 22.8289 13.7754 22.5113 12.7476C23.4552 14.274 24 16.0733 24 17.9998C24 23.5227 19.5229 27.9998 14 27.9998C12.0736 27.9998 10.2744 27.4551 8.74808 26.5113C9.77583 26.8289 10.8679 26.9999 12 26.9999Z" fill="#6B438B"/>
</svg>

<svg xmlns="http://www.w3.org/2000/svg" width="32" height="32" fill="none"><path fill="#FF822D" d="M23.369 2.555c.18.728 1.208.745 1.413.024a.731.731 0 0 1 .994-.47l.585.254c.406.176.564.67.335 1.048-.386.642.328 1.38.982 1.016a.731.731 0 0 1 1.036.37l.235.594a.731.731 0 0 1-.504.978c-.727.18-.745 1.208-.024 1.413a.731.731 0 0 1 .47.994l-.254.585a.731.731 0 0 1-1.048.335c-.642-.386-1.38.328-1.016.982a.731.731 0 0 1-.37 1.036l-.594.235a.731.731 0 0 1-.978-.504c-.18-.728-1.208-.745-1.413-.024a.731.731 0 0 1-.994.47l-.585-.254a.731.731 0 0 1-.335-1.048c.386-.642-.328-1.38-.982-1.016a.731.731 0 0 1-1.036-.37l-.235-.594a.731.731 0 0 1 .504-.978c.728-.18.745-1.208.024-1.413a.731.731 0 0 1-.47-.994l.254-.585a.731.731 0 0 1 1.048-.335c.642.386 1.38-.328 1.016-.983a.731.731 0 0 1 .37-1.035l.594-.235a.731.731 0 0 1 .978.504Z"/><path fill="#F4F4F4" d="M25.207 5.793a1 1 0 0 1 0 1.414l-3 3a1 1 0 0 1-1.414-1.414l3-3a1 1 0 0 1 1.414 0Z"/><path fill="#533566" d="M26 18c0 6.627-5.373 12-12 12S2 24.627 2 18 7.373 6 14 6s12 5.373 12 12Z"/><path fill="#6B438B" d="M12 27c6.075 0 11-4.925 11-11a11 11 0 0 0-.489-3.252A9.954 9.954 0 0 1 24 18c0 5.523-4.477 10-10 10a9.953 9.953 0 0 1-5.252-1.489C9.776 26.83 10.868 27 12 27Z"/></svg>
